X: 5
T: The Coolin
R: waltz
M: 3/4
L: 1/8
K: Gmaj
|:de/f/|(g2 g2) a>f|g>d B2 GB/d/|g>f ga/b/ ag|g2 f2 gf/d/|
e3 f/g/ a(3g/f/e/|d2 B>d g>G|GB/d/ f3{fgf}e/d/|dc/A/ B2 GA/B/|
A2 G2 G2|G4 G2|dc B3A|G>A B>c|d^c de fd|g>f ga/b/ a>g|
g2 f2 g>f/d/|e3 f/g/ a(3g/f/e/|d2 B>d g>G|GB/d/ f{fgf}e/d/|
dc/A/ B2 GA/B/|A2 G2 G2|G4 G4| G4 z2||


Tune 1815	Setting 1815

